X: 7
T: Bobby Casey's
C: Michael Dwyer
Z: Pipolidz
S: https://thesession.org/tunes/270#setting54041
R: reel
M: 4/4
L: 1/8
K: Dmaj
|:DFAB- BBAB|d2fd edBd|DFAB- BBAB|dfgf edBd|
DFAB- BBAB|d2fd efge|fgaf (3gag fe|1 defd edBd:|2 defd edBA||
|:d/e/d/c/ df eABA|defg (3agf (3gfe|dcdf eBBB|gBBB dBAB|
d/e/d/c/ df edef|defd edBd|ABdf bafb|1 afed BdAB:|2 afed BdA2||

%-------------------- TUNE SEPARATOR --------------------%

